!!!!SEGMENT: pl-wtm--670-sp-3678--001-020_fesca-friedrich-ernst--piosenki-dla-mlodocianego-wieku-piotr-maszynski-20-do-lasu.krn
!!!cenid: 18xx:4772
!!!COM: Fesca, Friedrich Ernst
!!!COM-rismID: pe47822
!!!CDT: 1789/02/15-1826/05/24
!!!CNT: German
!!!GTL: Piosenki dla młodocianego wieku (Piotr Maszyński)
!!!OTL: 20. Do lasu
!!!OMV: 020
!!!PDT: 1871
!!!AGN: Secular; Song; Children
!!!YEC: Copyright 2022 Narodowy Instytut Fryderyka Chopina (https://polishscores.org)
!!!YEM: License CC-BY-4.0 (https://creativecommons.org/licenses/by/4.0)
!!!SMS-siglum: PL-Wtm
!!!SMS-shelfmark: 670 śp 3678
!!!SMS-variant:
!!!SMS-altvar:
!!!SMS-shelfwork: 001-020 G
!!!NIFC-rismSourceID: 1001185478
!!!NIFC-rismChildID: 1001185478
!!!NIFC-islandoraID: pl-wtm:57754
!!!URL-pdf-islandora: https://repozytorium.nifc.pl/islandora/object/pl-wtm%3A57754/datastream/PDF/view
!!!URL-scan: https://polish.musicsources.pl/pl/lokalizacje/galeria/druki-muzyczne/19483/14 @EN{Scan on Polish Music Sources Website} @PL{Skany w portalu Dziedzictwo Muzyki Polskiej w otwartym dostępie}
!!!IIIF:
!!!ONB-nifc:
!!!AIN: 1 canto 1 piano
!!!key: G
**kern	**fing	**kern	**fing	**dynam	**kern	**text	**text	**text	**text	**dynam
*part2	*	*part2	*	*part2	*part1	*part1	*part1	*part1	*part1	*part1
*staff3	*	*staff2	*	*staff2/3	*staff1	*staff1	*staff1	*staff1	*staff1	*
*IGacmp	*	*IGacmp	*	*	*	*	*	*	*	*
*ICklav	*	*ICklav	*	*	*ICvox	*	*	*	*	*
*Ipiano	*	*Ipiano	*	*	*Icanto	*	*	*	*	*
*I"Fortepian.	*	*I"Fortepian.	*	*	*I"Śpiew.	*	*	*	*	*
*I'	*	*I'	*	*	*I'	*	*	*	*	*
*clefF4	*	*clefG2	*	*	*clefG2	*	*	*	*	*
*k[f#]	*	*k[f#]	*	*	*k[f#]	*	*	*	*	*
*G:	*	*G:	*	*	*G:	*	*	*	*	*
*M3/4	*	*M3/4	*	*	*M3/4	*	*	*	*	*
*	*	*	*	*	*^	*	*	*	*	*
!!LO:TX:a:B:t=Allegretto con moto.
!	!	!	!	!	!	!	!	!	!	!	!LO:DY:a
4r	.	8gL 8B/	1 3	mf	8g/	8B\	Za-	Pó-	Na	A	mf
.	.	8aJ 8d/	1 4	.	8a/	8d\	-śpie-	-ki	te	na-	.
=1	=1	=1	=1	=1	=1	=1	=1	=1	=1	=1	=1
4GG/	.	4b 4g/	3 5	.	4b/	4g\	-wa-	sło-	łą-	-za-	.
4G\	.	4b 4g/	.	.	4b/	4g\	-ły	-ta	-ki,	-jutrz	.
4r	.	8aL 8d/	2 5	.	8a/	8d\	znów	trze-	na	aż	.
.	.	8gJ 8B/	1 4	.	8g/	8B\	pta-	-ba	o-	do	.
=2	=2	=2	=2	=2	=2	=2	=2	=2	=2	=2	=2
4F# 4D\	.	4a 4d/	.	.	4a/	4d\	-szy-	by-	-gro-	la-	.
4F# 4D\	.	4a 4d/	.	.	4a/	4d\	-ny	-ło	-dy	-su,	.
4r	.	8gL 8B/	.	.	8g/	8B\	i	sie-	bu-	po	.
.	.	8aJ 8d/	.	.	8a/	8d\	roz-	-dzieć	-jać	zie-	.
=3	=3	=3	=3	=3	=3	=3	=3	=3	=3	=3	=3
4G\	.	8bL 8g/	1 3	.	8b/	8g\	-kwi-	w do-	choć-	-lo-	.
.	.	8ccJ 8a/	.	.	8cc/	8a\	-ta	-mu	-by	-nym	.
4GG/	.	4dd 4b\	.	.	4dd/	4b\	z pącz-	ca-	ca-	stą-	.
4C/	.	(8ccL 8a/	.	.	(8cc/L	(8a\L	-ka	-ły	-ły	-pać	.
.	.	8bJ 8g/)	.	.	8b/J)	8g\J)	.	.	.	.	.
!!LO:LB:g=original
=4	=4	=4	=4	=4	=4	=4	=4	=4	=4	=4	=4
4D\	.	4a 4f# 4d/	.	.	4a/	4d\	kwiat,	czas,	dzień	mchu;	.
4DD/	.	4r	.	.	4r	4ryy	.	.	.	.	.
4r	.	8ddL 8b\	.	.	8dd/	8b\	słon-	dziś	i	co	.
.	.	8eeJ 8cc\	.	.	8ee/	8cc\	-ko	ot-	u-	tu	.
=5	=5	=5	=5	=5	=5	=5	=5	=5	=5	=5	=5
4.D\	.	(8ddL 8b\	.	.	(8dd/L	(8b\L	mi-	-war-	-ży-	blas-	.
.	.	8ccJ 8a\)	.	.	8cc/J)	8a\J)	.	.	.	.	.
.	.	4a 4f#/	1 2	.	4a/	4d\	-le	-te	-wać	-ku,	.
(8d\L	.	.	.	.	.	.	.	.	.	.	.
8c\	.	(4a 4f#/	.	.	8a/	8d\	się	drzwi	znów	dźwię-	.
8d\J	.	.	.	.	8a/	8d\	u-	od	swo-	-ków,	.
=6	=6	=6	=6	=6	=6	=6	=6	=6	=6	=6	=6
8B\L	2	4b 4g/	.	.	4b/	4g\	-śmie-	klat-	-bo-	wo-	.
8d\	.	.	.	.	.	.	.	.	.	.	.
8G\	.	4dd 4b\)	.	.	4dd/	4b\	-cha,	-ki!	-dy	-ni!	.
8d\J)	.	.	.	.	.	.	.	.	.	.	.
4D\	.	8ddL 8b\	.	.	8dd/	8b\	co	oj	po-	ca-	.
.	.	8eeJ 8cc\	.	.	8ee/	8cc\	za	wy-	-śród	-ły	.
!!LO:LB:g=original
=7	=7	=7	=7	=7	=7	=7	=7	=7	=7	=7	=7
(8D\L	.	(8ddL 8b\	.	.	(8dd/L	(8b\L	ra-	-fru-	kwiat-	las	.
8F#\	.	8ccJ 8a\)	.	.	8cc/J)	8a\J)	.	.	.	.	.
8A\	.	4a 4f#/	.	.	4a/	4d\	-dość	-ną	-ków	we-	.
8d\	.	.	.	.	.	.	.	.	.	.	.
!	!	!	!	!	!	!	!	!	!	!	!LO:HP:a
8c\	.	(4a 4f#/	.	<	8a/	8d\	i	mi-	rze-	-se-	<
8d\J	.	.	.	.	8a/	8d\	u-	-łe	-szy	-lem	.
=8	=8	=8	=8	=8	=8	=8	=8	=8	=8	=8	=8
8B\L	.	4b 4g/	.	.	4b/	4g\	-cie-	dziat-	mło-	dzwo-	.
8d\	.	.	.	.	.	.	.	.	.	.	.
8G\	.	4dd 4b\)	.	.	4dd/	4b\	-cha	-ki,	-dej	-ni,	.
8d\J)	.	.	.	.	.	.	.	.	.	.	.
!	!	!	!	!	!	!	!	!	!	!	!LO:DY:a
4C/	.	8eeL 8g\	.	f	8ee/	8cc\	na	oj	i	ach!	f
.	.	8ccJ 8a\	.	.	8cc/	8a\	ten	wy-	sło-	naj-	.
=9	=9	=9	=9	=9	=9	=9	=9	=9	=9	=9	=9
*^	*	*	*	*	*	*	*	*	*	*	*
4D\	2ryy	.	8bL 8g\	.	.	8b/	8g\	bo-	-fru-	-wi-	-mi-	.
.	.	.	8ddJ 8b\	.	.	8dd/	8b\	-ży	-ną	-ka	-lej	.
4d\	.	.	4b 4g/	.	.	4b/	4g\	wyj-	z ptasz-	słu-	z wio-	.
(8c/L	4D\	.	(8aL 8f#/	2 4	.	(8a/L	8d\L	-rzeć	-kiem	-chać	-sną	.
8B/J)	.	.	8g/J)	.	.	8g/J)	8B\J	.	.	.	.	.
*v	*v	*	*	*	*	*	*	*	*	*	*	*
=10	=10	=10	=10	=10	=10	=10	=10	=10	=10	=10	=10
4B 4G\	3 1	4g/	.	.	4g/	4B\	świat!	wraz.	pień.	tu!	.
4GG/	.	4r	.	.	4r	4ryy	.	.	.	.	.
*	*	*	*	*	*v	*v	*	*	*	*	*
==	==	==	==	==	==	==	==	==	==	==
*-	*-	*-	*-	*-	*-	*-	*-	*-	*-	*-
!!!system-decoration: s1{(s2,s3)}
!!!RDF**kern: > = above
!!!RDF**kern: < = below
!!!RDF**kern: N = linked
!!!ENC: Andrzej Gręziak
!!!EED: Katarzyna Serwa
!!!END: 2025-03-26
!!!EEV: 2025-03-27
